wave/wave_logo_dark.svg

<svg width="1271" height="500" viewBox="0 0 1271 500" fill="none" xmlns="http://www.w3.org/2000/svg">
<mask id="mask0_417_1855" style="mask-type:luminance" maskUnits="userSpaceOnUse" x="125" y="125" width="1021" height="250">
<path d="M1146 125H125V375H1146V125Z" fill="white"/>
</mask>
<g mask="url(#mask0_417_1855)">
<mask id="mask1_417_1855" style="mask-type:luminance" maskUnits="userSpaceOnUse" x="125" y="125" width="256" height="250">
<path d="M380.2 125H125V375H380.2V125Z" fill="white"/>
</mask>
<g mask="url(#mask1_417_1855)">
<path d="M172.4 244.6C175 205.2 206.7 173.5 246.2 171.1V125C181.2 127.6 129 179.7 126.3 244.6H172.4Z" fill="#201637"/>
<path d="M172.4 375C175 335.6 206.7 303.9 246.2 301.5V255.4C181.2 258 129 310.1 126.3 375H172.4Z" fill="#201637"/>
<path d="M330.3 125C327.7 164.4 296 196.1 256.5 198.5V244.6C321.5 242 373.7 189.9 376.4 125H330.3Z" fill="#201637"/>
<path d="M330.3 255.4C327.7 294.8 296 326.5 256.5 328.9V375C321.5 372.4 373.7 320.3 376.4 255.4H330.3Z" fill="#201637"/>
</g>
<path d="M474.5 302.901L453.2 170.801H484.5L503.4 308.201H508.3L529.7 195.701C532.5 181.301 545.1 170.801 559.8 170.801C574.5 170.801 587.2 181.301 589.9 195.801L611 308.201H615.9L634.8 170.801H666L644.7 302.901C642.3 318.101 629.2 329.201 613.8 329.201C598.7 329.201 585.8 318.501 583 303.701L562 192.101H557.1L536.1 303.701C533.3 318.501 520.4 329.201 505.3 329.201C490 329.201 476.9 318.001 474.5 302.901Z" fill="#201637"/>
<path d="M878.7 305.401L835.8 170.801H868.9L908.7 306.101H913.6L953.4 170.801H986.5L943.6 305.401C939.1 319.501 925.9 329.101 911.1 329.101C896.3 329.201 883.2 319.601 878.7 305.401Z" fill="#201637"/>
<path d="M1145.5 246.801C1145.5 231.601 1142.5 218.301 1136.4 207.001C1130.3 195.701 1121.8 186.801 1111 180.401C1100.1 174.001 1087.5 170.801 1073.1 170.801C1058.7 170.801 1045.3 174.001 1034.2 180.501C1028.6 183.701 1023.6 187.601 1019.3 192.101C1018.8 192.701 1018.2 193.201 1017.7 193.801C1016.1 195.601 1014.6 197.401 1013.2 199.301C1011.3 201.901 1009.6 204.601 1008 207.501C1001.6 219.001 998.4 232.601 998.4 248.201V251.801C998.4 267.401 1001.6 281.001 1008 292.501C1014.4 304.001 1023.3 313.001 1034.6 319.401C1045.9 325.801 1059.2 329.001 1074.4 329.001C1087.8 329.001 1098.9 326.901 1107.8 322.601C1116.7 318.301 1123.8 313.101 1129.1 306.801C1130.6 305.001 1131.9 303.301 1133.2 301.601C1136.6 297.201 1139.3 292.901 1141.5 288.801L1115.4 275.401C1112.2 282.301 1107.5 288.401 1101.6 293.601C1095.6 298.901 1086.7 301.501 1075 301.501C1062.4 301.501 1051.9 297.601 1043.5 289.801C1043 289.301 1042.5 288.801 1042 288.301C1041.5 287.801 1041 287.301 1040.6 286.801C1039.5 285.501 1038.4 284.201 1037.5 282.701C1033.4 276.601 1031.1 269.301 1030.5 260.801C1030.4 260.001 1030.4 259.201 1030.4 258.401H1145.6L1145.5 246.801ZM1051.2 234.701L1035.2 250.701H1029.9C1029.8 246.101 1029.9 240.201 1030.5 234.701C1030.8 232.601 1031.2 230.601 1031.7 228.701C1032.2 226.801 1032.8 224.901 1033.5 223.201C1035.9 217.301 1039.4 212.401 1044 208.301C1051.4 201.801 1061 198.601 1072.7 198.601C1084.4 198.601 1094 201.801 1101.3 208.301C1108.6 214.801 1112.8 223.601 1113.8 234.701H1051.2Z" fill="#201637"/>
<path d="M817.6 227.5C817.6 209.2 812 195 800.8 185.1C789.6 175.1 774.2 170.1 754.7 170.1C741.9 170.1 731 172.1 722.2 176.2C713.3 180.3 706.2 185.7 700.8 192.4C695.4 199.1 691.5 206.4 689 214.4L718.3 223.9C720.1 215.8 723.9 209.1 729.6 204.1C735.3 199 743.5 196.5 754.3 196.5C765.1 196.5 773.4 199.2 778.7 204.6C784 210 786.6 217 786.6 225.5V251.5H781.5L765.2 235.2H740.8C724.3 235.2 710.6 239.1 699.7 247C688.8 254.8 683.4 266.4 683.4 281.7C683.4 291.9 685.9 300.5 690.9 307.6C695.9 314.7 702.6 320.1 711.1 323.8C719.6 327.5 729.2 329.3 740 329.3C750.8 329.3 758.7 327.8 765 324.9C771.3 322 776.1 318.5 779.4 314.5C782.7 310.5 785.1 306.9 786.7 303.7H791.6V329.3H817.6V227.5ZM786.7 262.6C786.7 275.2 782.8 285.1 774.9 292.4C767.1 299.6 756.9 303.2 744.5 303.2C735.3 303.2 728.1 301.2 722.8 297.1C717.5 293 714.9 287.5 714.9 280.6C714.9 273.7 717.5 268.4 722.5 264.9C727.6 261.3 734.3 259.6 742.7 259.6H786.7V262.6Z" fill="#201637"/>
</g>
</svg>

<?xml version="1.0" encoding="utf-8"?>
<!-- Generator: Adobe Illustrator 28.3.0, SVG Export Plug-In . SVG Version: 6.00 Build 0)  -->
<svg version="1.1" id="Layer_1" xmlns="http://www.w3.org/2000/svg" xmlns:xlink="http://www.w3.org/1999/xlink" x="0px" y="0px"
	 viewBox="0 0 1271 500" style="enable-background:new 0 0 1271 500;" xml:space="preserve">
<style type="text/css">
	.st0{clip-path:url(#SVGID_00000040549792399670465450000011373929288782197410_);}
	.st1{clip-path:url(#SVGID_00000070084196455358149380000008552368523697810878_);}
	.st2{fill:#160F26;}
</style>
<g>
	<defs>
		<rect id="SVGID_1_" x="125" y="125" width="1021" height="250"/>
	</defs>
	<clipPath id="SVGID_00000018232183955642163970000010569270619756193698_">
		<use xlink:href="#SVGID_1_"  style="overflow:visible;"/>
	</clipPath>
	<g style="clip-path:url(#SVGID_00000018232183955642163970000010569270619756193698_);">
		<g>
			<defs>
				<rect id="SVGID_00000150793270125181977310000017549576616918266022_" x="125" y="125" width="255.2" height="250"/>
			</defs>
			<clipPath id="SVGID_00000106853096553338251810000005595954306217521332_">
				<use xlink:href="#SVGID_00000150793270125181977310000017549576616918266022_"  style="overflow:visible;"/>
			</clipPath>
			<g style="clip-path:url(#SVGID_00000106853096553338251810000005595954306217521332_);">
				<path class="st2" d="M172.4,244.6c2.6-39.4,34.3-71.1,73.8-73.5V125c-65,2.6-117.2,54.7-119.9,119.6H172.4z"/>
				<path class="st2" d="M172.4,375c2.6-39.4,34.3-71.1,73.8-73.5v-46.1c-65,2.6-117.2,54.7-119.9,119.6H172.4z"/>
				<path class="st2" d="M330.3,125c-2.6,39.4-34.3,71.1-73.8,73.5v46.1c65-2.6,117.2-54.7,119.9-119.6H330.3z"/>
				<path class="st2" d="M330.3,255.4c-2.6,39.4-34.3,71.1-73.8,73.5V375c65-2.6,117.2-54.7,119.9-119.6H330.3z"/>
			</g>
		</g>
		<path class="st2" d="M474.5,302.9l-21.3-132.1h31.3l18.9,137.4h4.9l21.4-112.5c2.8-14.4,15.4-24.9,30.1-24.9
			c14.7,0,27.4,10.5,30.1,25L611,308.2h4.9l18.9-137.4H666l-21.3,132.1c-2.4,15.2-15.5,26.3-30.9,26.3c-15.1,0-28-10.7-30.8-25.5
			l-21-111.6h-4.9l-21,111.6c-2.8,14.8-15.7,25.5-30.8,25.5C490,329.2,476.9,318,474.5,302.9L474.5,302.9z"/>
		<path class="st2" d="M878.7,305.4l-42.9-134.6h33.1l39.8,135.3h4.9l39.8-135.3h33.1l-42.9,134.6c-4.5,14.1-17.7,23.7-32.5,23.7
			C896.3,329.2,883.2,319.6,878.7,305.4L878.7,305.4z"/>
		<path class="st2" d="M1145.5,246.8c0-15.2-3-28.5-9.1-39.8c-6.1-11.3-14.6-20.2-25.4-26.6c-10.9-6.4-23.5-9.6-37.9-9.6
			s-27.8,3.2-38.9,9.7c-5.6,3.2-10.6,7.1-14.9,11.6c-0.5,0.6-1.1,1.1-1.6,1.7c-1.6,1.8-3.1,3.6-4.5,5.5c-1.9,2.6-3.6,5.3-5.2,8.2
			c-6.4,11.5-9.6,25.1-9.6,40.7v3.6c0,15.6,3.2,29.2,9.6,40.7c6.4,11.5,15.3,20.5,26.6,26.9c11.3,6.4,24.6,9.6,39.8,9.6
			c13.4,0,24.5-2.1,33.4-6.4c8.9-4.3,16-9.5,21.3-15.8c1.5-1.8,2.8-3.5,4.1-5.2c3.4-4.4,6.1-8.7,8.3-12.8l-26.1-13.4
			c-3.2,6.9-7.9,13-13.8,18.2c-6,5.3-14.9,7.9-26.6,7.9c-12.6,0-23.1-3.9-31.5-11.7c-0.5-0.5-1-1-1.5-1.5c-0.5-0.5-1-1-1.4-1.5
			c-1.1-1.3-2.2-2.6-3.1-4.1c-4.1-6.1-6.4-13.4-7-21.9c-0.1-0.8-0.1-1.6-0.1-2.4h115.2L1145.5,246.8L1145.5,246.8z M1051.2,234.7
			l-16,16h-5.3c-0.1-4.6,0-10.5,0.6-16c0.3-2.1,0.7-4.1,1.2-6c0.5-1.9,1.1-3.8,1.8-5.5c2.4-5.9,5.9-10.8,10.5-14.9
			c7.4-6.5,17-9.7,28.7-9.7s21.3,3.2,28.6,9.7c7.3,6.5,11.5,15.3,12.5,26.4H1051.2L1051.2,234.7z"/>
		<path class="st2" d="M817.6,227.5c0-18.3-5.6-32.5-16.8-42.4c-11.2-10-26.6-15-46.1-15c-12.8,0-23.7,2-32.5,6.1
			c-8.9,4.1-16,9.5-21.4,16.2c-5.4,6.7-9.3,14-11.8,22l29.3,9.5c1.8-8.1,5.6-14.8,11.3-19.8c5.7-5.1,13.9-7.6,24.7-7.6
			c10.8,0,19.1,2.7,24.4,8.1c5.3,5.4,7.9,12.4,7.9,20.9v26h-5.1l-16.3-16.3h-24.4c-16.5,0-30.2,3.9-41.1,11.8
			c-10.9,7.8-16.3,19.4-16.3,34.7c0,10.2,2.5,18.8,7.5,25.9c5,7.1,11.7,12.5,20.2,16.2c8.5,3.7,18.1,5.5,28.9,5.5
			c10.8,0,18.7-1.5,25-4.4c6.3-2.9,11.1-6.4,14.4-10.4c3.3-4,5.7-7.6,7.3-10.8h4.9v25.6h26L817.6,227.5L817.6,227.5z M786.7,262.6
			c0,12.6-3.9,22.5-11.8,29.8c-7.8,7.2-18,10.8-30.4,10.8c-9.2,0-16.4-2-21.7-6.1c-5.3-4.1-7.9-9.6-7.9-16.5
			c0-6.9,2.6-12.2,7.6-15.7c5.1-3.6,11.8-5.3,20.2-5.3h44L786.7,262.6L786.7,262.6z"/>
	</g>
</g>
</svg>
